!!!COM: Beethoven, Ludwig van
!!!CDT: 1770///-1827///
!!!OTL: Piano Sonata no. 9 in E major
!!!OPS: 14
!!!ONM: 1
!!!OMV: 2
!!!OMD: Allegretto
**kern	**kern	**dynam
*staff2	*staff1	*staff1/2
*Ipiano	*Ipiano	*Ipiano
*>[A,B,B,C]	*>[A,B,B,C]	*>[A,B,B,C]
*>norep[A,B,C]	*>norep[A,B,C]	*>norep[A,B,C]
*>A	*>A	*>A
*clefF4	*clefG2	*clefG2
*k[f#]	*k[f#]	*k[f#]
*e:	*e:	*e:
*M3/4	*M3/4	*M3/4
*MM120	*MM120	*MM120
=1-	=1-	=1-
*	*^	*
*^	*	*	*
2.E/	(4.E\	(4.e/	2.G\ 2.B\	p
.	8D#\	8d#/	.	.
.	4E\)	4e/)	.	.
=2	=2	=2	=2	=2
(4.E/	2.C\	(4.e/	2.G\ 2.c\	<
8D#/	.	8d#/	.	.
4E/)	.	4e/)	.	.
*v	*v	*	*	*
*	*v	*v	*
=3	=3	=3
2.AA#\ [2.G\	2.A#/ 2.c#/ [2.g/	.
=4	=4	=4
*	*^	*
*^	*	*	*
(4G/]	2.AAn\	(4g/]	2.An\ 2.cn\	.
8F#/L	.	8f#/L	.	.
8E/	.	8e/	.	.
8D#/	.	8d#/	.	.
8F#/J)	.	8f#/J)	.	.
*v	*v	*	*	*
*	*v	*v	*
=5	=5	=5
(4GG/ 4E/	4B/ (4e/	.
4FF#/ 4D#/	4B/ 4f#/	.
4EE/) 4E/	4B/ 4g/)	.
=6	=6	=6
*	*^	*
2DD#/ 2BB/	(4b/	2f#\	.
.	4a/	.	.
4EE/ 4BB/	4g/)	4e\	.
=7	=7	=7	=7
*^	*	*	*
2BB/	[2.BBB\	(2f#/	2d#\	.
4AA#/	.	8a/L	4e\	.
.	.	8g/J	.	.
*	*	*v	*v	*
=8	=8	=8	=8
4BB/	4BBB\]	4d#'/ 4f#'/)	.
4r	4r	4r	.
4r	4r	4b/	.
*clefG2	*clefG2	*clefG2	*
=9	=9	=9	=9
*^	*	*	*
(2.e\	4.e/	(4.ee/	2.g\ 2.b\	p
.	8d#/	8dd#/	.	.
.	4e/)	4ee/)	.	.
=10	=10	=10	=10	=10
(4.e/	2.c\	(4.ee/	2.g\ 2.cc\	<
8d#/	.	8dd#/	.	.
4e/)	.	4ee/)	.	.
=11	=11	=11	=11	=11
[2.g/	2.A#\	[2.gg/	2.a#\ 2.cc#\	.
=12	=12	=12	=12	=12
(4g/]	2.An\	(4gg/]	2.an\ 2.ccn\	.
8f#/L	.	8ff#/L	.	.
8e/	.	8ee/	.	.
8d#/	.	8dd#/	.	.
8f#/J)	.	8ff#/J)	.	.
*v	*v	*	*	*
*clefF4	*	*	*
=13	=13	=13	=13
4G\ 4e\	(4ee/	[4b\	<
4F#\ 4d#\	4ff#/	4b\]	.
4E\ 4e\	4gg/	4b\	.
=14	=14	=14	=14
2D#\ 2B\	4bb/	2ff#\	>
.	4aa/	.	.
4E\ 4B\	4gg/)	4ee\	.
=15	=15	=15	=15
*^	*	*	*
2B/	2.BB\	(2gg/	2ee\	>
4A/	.	4ff#/	4dd#\	.
=16	=16	=16	=16	=16
4G/	4E\	4ee/	4ee\)	.
4r	4r	4r	4r	.
4r	4r	4r	4r	.
*v	*v	*	*	*
=17	=17	=17	=17
2.C\ 2.E\	(4.e/	2.G\ 2.c\	p
.	8d#/	.	.
.	4e/)	.	.
=18	=18	=18	=18
2.GG\ 2.G\	2.g/	2.B\ 2.dn\	.
=19	=19	=19	=19
2.D\ 2.Fn\	(4.fn/	2.A\ 2.d\	.
.	8e/	.	.
.	4f/)	.	.
=20	=20	=20	=20
2.BB\ 2.G\	2.g/	2.d\	.
=21	=21	=21	=21
(2.C/ 2.E/	(4.e/	2.G\ 2.c\	.
.	8d#/	.	.
.	4e/)	.	.
=22	=22	=22	=22
2.GG/ 2.D/	2g/	2.B\ 2.dn\	.
.	4g/	.	.
=23	=23	=23	=23
2.DD/ 2.D/	2g/	2.A\ 2.d\	.
.	4f#/	.	.
=24	=24	=24	=24
4GGG/) 4GG/	4g/	4B\ 4d\	.
4r	4r	4r	.
4r	4g/	4r	.
*clefG2	*	*	*
=25	=25	=25	=25
*^	*	*	*
(4.e/	2.c\	(4.ee/	2.g\ 2.cc\	.
8d#/	.	8dd#/	.	.
4e/)	.	4ee/)	.	.
*v	*v	*	*	*
=26	=26	=26	=26
2.G/ 2.g/	2.gg/	2.b\ 2.ddn\	.
=27	=27	=27	=27
*^	*	*	*
(4.fn/	2.d\	(4.ffn/	2.a\ 2.dd\	.
8e/	.	8ee/	.	.
4f/)	.	4ff/)	.	.
*v	*v	*	*	*
=28	=28	=28	=28
2.B/ 2.g/	2.gg/	2.dd\	.
=29	=29	=29	=29
*^	*	*	*
(4.e/	2.c\	4.ee/	2.g\ 2.cc\	p
8d#/	.	8dd#/	.	.
4e/)	.	4ee/	.	.
*v	*v	*	*	*
*v	*v	*	*
*clefF4	*	*
=30	=30	=30
2.C\ 2.A#\	(2e'/ 2ee'/	<
.	4e'/) 4ee'/	.
=31	=31	=31
[2.BB\ [2.B\	(2e/ 2ee/	>
.	4d#/) 4dd#/	.
=32	=32	=32
2.BB\] 2.B\]	2f#;\ 2ff#;\	.
.	4b\	p
*clefG2	*	*
=33	=33	=33
*	*^	*
*^	*	*	*
(2.e\	4.e/	(4.ee/	2.g\ 2.b\	<
.	8d#/	8dd#/	.	.
.	4e/)	4ee/)	.	.
=34	=34	=34	=34	=34
(4.e/	2.c\	(4.ee/	2.g\ 2.cc\	.
8d#/	.	8dd#/	.	.
4e/)	.	4ee/)	.	.
*v	*v	*	*	*
=35	=35	=35	=35
2.A#/ [2.g/	[2.gg/	2.a#\ 2.cc#\	.
=36	=36	=36	=36
*^	*	*	*
(4g/]	2.An\	(4gg/]	2.an\ 2.ccn\	.
8f#/L	.	8ff#/L	.	.
8e/	.	8ee/	.	.
8d#/	.	8dd#/	.	.
8f#/J)	.	8ff#/J)	.	.
*v	*v	*	*	*
*clefF4	*	*	*
=37	=37	=37	=37
4G\ 4e\	(4ee/	4b\	.
4F#\ 4d#\	4ff#/	4b\	.
4E\ 4e\	4gg/	4b\	.
=38	=38	=38	=38
2D#\ 2B\	4bb/	2ff#\	.
.	4aa/	.	.
4E\ 4B\	4gg/)	4ee\	.
=39	=39	=39	=39
*^	*	*	*
2B/	[2.BB\	(2ff#/	2dd#\	.
4A#/	.	8aan/L	4ee\	.
.	.	8gg/J	.	.
*v	*v	*	*	*
=40	=40	=40	=40
4BB'\] 4B'\	4ff#'/)	4dd#\	.
4r	4r	4r	.
4r	4r	4B/	.
*	*v	*v	*
=41	=41	=41
*^	*	*
2.E\	(4.E/	(4.e/	.
.	8D#/	8d#/	.
.	4E/)	4e/)	.
=42	=42	=42	=42
(4.E/	2.C\	(4.e/	<
8D#/	.	8d#/	.
4E/)	.	4e/)	.
*v	*v	*	*
=43	=43	=43
*	*^	*
[2.Dn\ [2.Fn\ 2.c\	[2.cc/	[2.dn\ [2.fn\	.
=44	=44	=44	=44
*^	*	*	*
(4c/	2.Dn\] 2.Fn\]	(4cc/]	2.d\] 2.f\]	.
8B/L	.	8b/L	.	.
8A/	.	8a/	.	.
8G#/	.	8g#/	.	.
8B/J)	.	8b/J)	.	.
*v	*v	*	*	*
=45	=45	=45	=45
4C\ 4E\ 4A\	4r	4c'/ 4e'/ 4a'/	.
2D\ 2Fn\ 2B\	(8b/L	2d\ 2fn\	.
.	8a/	.	.
.	8g#/	.	.
.	8b/J)	.	.
=46	=46	=46	=46
4C'\ 4E'\ 4A'\	4r	4c'/ 4e'/ 4a'/	.
2D\ 2Fn\ 2B\	(8b/L	2d\ 2fn\	.
.	8a/	.	.
.	8g#/	.	.
.	8b/J)	.	.
*	*v	*v	*
=47	=47	=47
4C'\ 4E'\ 4A'\	4c'/ 4e'/ 4a'/	.
4r	(8a/L	<
.	8g#/	.
4r	8a/	.
.	8b/J	.
=48	=48	=48
4r	8cc\L	.
.	8dd\	.
4r	8ee\	.
.	8dd#\	.
4A\ 4e\	8ee\	.
.	8cc\J)	.
=49	=49	=49
4B\ 4e\	4b'/	p
4r	(8b/L	.
.	8a#/	.
4r	8b/	.
.	8gn/J	.
=50	=50	=50
4BBB'/ 4BB'/	4d#'/) 4f#'/	.
4r	(8b/L	.
.	8a#/	.
4r	8b/	.
.	8f#/J)	.
=51	=51	=51
*^	*^	*
4r	[2.EE\	(2.e/	4r	<
4r	.	.	4r	.
4BB/	.	.	4G#\	.
=52	=52	=52	=52	=52
4C/	2.EE\_	2.d#/	4A\	.
8C/L	.	.	8A\L	.
8BB/	.	.	8B\	.
8AA/	.	.	8c\	.
8C/J	.	.	8A\J	.
=53	=53	=53	=53	=53
2E/	4EE\]	4e/)	4G#\	.
.	2r	4r	4r	.
4B/	.	4g#/	4e\	.
*v	*v	*	*	*
=54	=54	=54	=54
4c/	4a/	2.d#\	.
(8c/L	(8a/L	.	.
8B/	8b/	.	.
8A/	8cc/	.	.
8c/J)	8a/J)	.	.
=55	=55	=55	=55
*^	*	*	*
4B/	[2.E\	4g#/	4e\	.
4r	.	4r	4r	.
4B/	.	4ee/	4g#\	.
=56	=56	=56	=56	=56
4c/	2.E\]	2.dd#/	4a\	.
(8c/L	.	.	(8a\L	.
8B/	.	.	8b\	.
8A/	.	.	8cc\	.
8c/J)	.	.	8a\J)	.
=57	=57	=57	=57	=57
4B/	4E\	4ee/	4g#\	.
(8c/L	2E\	2dd#/	(8a\L	.
8B/	.	.	8b\	.
8A/	.	.	8cc\	.
8c/J)	.	.	8a\J)	.
=58	=58	=58	=58	=58
4B/	4E\	4ee/	4g#\	.
(8c/L	2E\	2dd#/	(8a\L	.
8B/	.	.	8b\	.
8A/	.	.	8cc\	.
8c/J)	.	.	8a\J)	.
*v	*v	*	*	*
*	*v	*v	*
=59	=59	=59
4E\ 4B\	4g#\ 4ee\	p
4r	4r	.
4r	4r	.
=60	=60	=60
4E\ 4B\	4ee\ 4gg#\	.
4r	4r	.
4r	4r	.
=61	=61	=61
4EE/ 4BB/ 4E/	4ee\ 4gg#\ 4eee\	pp
4r	4r	.
4r	4r	.
=62	=62	=62
2.r	[2eee\	<
.	(8.eee\L]	.
.	16e\Jk)	.
=63!|:	=63!|:	=63!|:
*>B	*>B	*>B
*k[]	*k[]	*k[]
*^	*^	*
2.C/	[2.CC\	(2.e/	2.G\	p
=64	=64	=64	=64	=64
2BB/	2.CC\]	4d/	2.F\	.
.	.	4f/	.	.
4D/	.	4B/	.	.
=65	=65	=65	=65	=65
4C/	4CC\	4c/	4E\	.
4r	4r	4e/	4r	.
4r	4r	[4g/	4r	.
*v	*v	*	*	*
=66	=66	=66	=66
2.r	4g/]	4G\	.
.	4f#/	4A\	.
.	4fn/)	4B\	.
=67	=67	=67	=67
*^	*	*	*
2.C/	[2.CC\	2.c/ (2.e/	2.G\	.
=68	=68	=68	=68	=68
2BB/	2.CC\]	4d/	2.F\	.
.	.	4f/	.	.
4D/	.	4B/)	.	.
=69	=69	=69	=69	=69
4C/	4CC\	(4c'/	4E\	.
4r	4r	4e'/	4r	.
4r	4r	4g/)	4r	.
*v	*v	*	*	*
*	*v	*v	*
=70	=70	=70
2.r	(4cc'\	.
.	4dd'\	.
.	4dd#'\)	.
=71	=71	=71
*	*^	*
2c\	(4ee/	2ee\	.
.	[2gg/	.	.
4B\	.	4ddn\	.
=72	=72	=72	=72
2A\	4gg/]	2cc\	.
.	4ff#/	.	.
4G\	4gg/)	4b\	.
=73	=73	=73	=73
2F#\	(4a/	2a\	.
.	[2cc/	.	.
4E\	.	4g\	.
=74	=74	=74	=74
2D#\	4cc/]	2f#\	.
.	[2b/)	.	.
4E\	.	4g\	.
=75	=75	=75	=75
2.C/	(4b/]	2.e\	.
.	4g#/	.	.
.	[4a/	.	.
=76	=76	=76	=76
2.D/	4a/]	2.c\	.
.	4e/	.	.
.	4f#/	.	.
=77	=77	=77	=77
4GG/	4gn/)	4B\	.
4r	4r	4A\	.
4r	4r	4G\	.
*	*v	*v	*
=78	=78	=78
*^	*	*
4Fn/	2.r	2.r	.
4E/	.	.	.
4D/	.	.	.
*v	*v	*	*
=79:|!	=79:|!	=79:|!
*>C	*>C	*>C
*	*^	*
*	*	*^	*
2.C#/	[2.GG\	4r	4r	.
.	.	4A/	[2A\	p
.	.	(4g/	.	.
=80	=80	=80	=80	=80
(4D/	2.GG\]	4fn/	2.A\]	.
4E/	.	4e/	.	.
4F/)	.	4d/)	.	.
=81	=81	=81	=81	=81
2.BB/	[2.GG\	4r	4r	.
.	.	4G/	[2G\	.
.	.	4f/	.	.
=82	=82	=82	=82	=82
4Cn/	2.GG\]	4e/	2.G\]	.
4D/	.	4d/	.	.
4E/	.	4c/	.	mp
=83	=83	=83	=83	=83
4r	[2.G\	4r	4r	.
4r	.	[2a\	4a/	p
4c#/	.	.	4gg/	.
=84	=84	=84	=84	=84
4d/	2.G\]	4ff/	2.a\]	<
4e/	.	4ee/	.	.
4f/	.	4dd/	.	.
=85	=85	=85	=85	=85
4r	[2.G\	4r	4r	.
4r	.	[2g\	4g/	.
4B/	.	.	4ff/	.
=86	=86	=86	=86	=86
4cn/	2.G\]	4ee/	2.g\]	.
4d/	.	4dd/	.	.
4e/	.	4cc/	.	.
*	*	*v	*v	*
=87	=87	=87	=87
4f/	4G\	(4b/	>
4r	4r	4a/	.
4r	4r	4g/	.
*	*v	*v	*
=88	=88	=88
2.r	4f/	.
.	4e/	.
.	4d/)	.
=89	=89	=89
*^	*	*
2.C/	[2.CC\	(2.e/	p
=90	=90	=90	=90
*	*	*^	*
2BB/	2.CC\]	4d/	2.F\	.
.	.	4f/	.	.
4D/	.	4B/)	.	.
=91	=91	=91	=91	=91
4C/	4CC\	(4c'/	4E\	.
4r	4r	4e/	4r	.
4r	4r	4g'/)	4r	.
*v	*v	*	*	*
*	*v	*v	*
=92	=92	=92
2.r	(4cc'\	.
.	4dd'\	.
.	4dd#'\)	.
=93	=93	=93
*^	*^	*
2.c/	[2.C\	2.g/ 2.ee/	2.e\	.
=94	=94	=94	=94	=94
2B/	2.C\]	4ddn/	2.f\	.
.	.	4ff/	.	.
4d/	.	4b/	.	.
*v	*v	*	*	*
=95	=95	=95	=95
4C\ 4c\	(4cc'/	4e\	<
4r	4ee'/	4r	.
4r	4gg'/)	4r	.
*	*v	*v	*
=96	=96	=96
2.r	(4ccc'\	.
.	4ddd'\	.
.	4ddd#'\)	.
=97	=97	=97
[2.C\ [2.E\ 2.G\	[2.ee\ [2.eee\	p
=98	=98	=98
2.C\] 2.E\] 2.A\	2.ee\] 2.eee\]	.
=99	=99	=99
[2.BB\ 2.E\ 2.G\ [2.B\	[2.b\ [2.bb\	pp
=100	=100	=100
2.BB;\] 2.D#;\ 2.F#;\ 2.B;\]	2.b;\] 2.bb;\]	.
=101	=101	=101
*k[f#]	*k[f#]	*k[f#]
*^	*^	*
2.E/	(4.E\	(4.e/	2.G\ 2.B\	p
.	8D#\	8d#/	.	.
.	4E\)	4e/)	.	.
=102	=102	=102	=102	=102
(4.E/	2.C\	4.e/	2.G\ 2.c\	<
8D#/	.	8d#/	.	.
4E/)	.	4e/	.	.
*v	*v	*	*	*
*	*v	*v	*
=103	=103	=103
2.AA#\ [2.G\	2.A#/ 2.c#/ [2.g/	.
=104	=104	=104
*^	*^	*
(4G/]	2.AAn\	(4g/]	2.An\ 2.cn\	.
8F#/L	.	8f#/L	.	.
8E/	.	8e/	.	.
8D#/	.	8d#/	.	.
8F#/J)	.	8f#/J)	.	.
*v	*v	*	*	*
*	*v	*v	*
=105	=105	=105
(4GG/ 4E/	4B/ (4e/	.
4FF#/ 4D#/	4B/ 4f#/	.
4EE/) 4E/	4B/ 4g/)	.
=106	=106	=106
*	*^	*
2DD#/ 2BB/	(4b/	2f#\	.
.	4a/	.	.
4EE/ 4BB/	4g/)	4e\	.
=107	=107	=107	=107
*^	*	*	*
2BB/	[2.BBB\	(2f#/	2d#\	.
4AA#/	.	8a/L	4e\	.
.	.	8g/J	.	.
*	*	*v	*v	*
=108	=108	=108	=108
4BB'/	4BBB\]	4d#'/ 4f#'/)	.
4r	4r	4r	.
4r	4r	4b/	.
*v	*v	*	*
*clefG2	*	*
=109	=109	=109
*^	*^	*
(2.e\	4.e/	(4.ee/	2.g\ 2.b\	p
.	8d#/	8dd#/	.	.
.	4e/)	4ee/)	.	.
=110	=110	=110	=110	=110
(4.e/	2.c\	(4.ee/	2.g\ 2.cc\	<
8d#/	.	8dd#/	.	.
4e/)	.	4ee/)	.	.
=111	=111	=111	=111	=111
[2.g/	2.A#\	[2.gg/	2.a#\ 2.cc#\	.
=112	=112	=112	=112	=112
(4g/]	2.An\	(4gg/]	2.an\ 2.ccn\	.
8f#/L	.	8ff#/L	.	.
8e/	.	8ee/	.	.
8d#/	.	8dd#/	.	.
8f#/J)	.	8ff#/J)	.	.
*v	*v	*	*	*
*clefF4	*	*	*
=113	=113	=113	=113
4G\ 4e\	(4ee/	4b\	<
4F#\ 4d#\	4ff#/	4b\	.
4E\ 4e\	4gg/	4b\	.
=114	=114	=114	=114
2D#\ 2B\	4bb/	2ff#\	>
.	4aa/	.	.
4E\ 4B\	4gg/)	4ee\	.
=115	=115	=115	=115
*^	*	*	*
2B/	2.BB\	(2gg/	2ee\	>
4A/	.	4ff#/	4dd#\	.
=116	=116	=116	=116	=116
4G/	4E\	4ee/	4ee\)	.
4r	4r	4r	4r	.
4r	4r	4r	4r	.
*v	*v	*	*	*
=117	=117	=117	=117
2.C\ 2.E\	(4.e/	2.G\ 2.c\	p
.	8d#/	.	.
.	4e/)	.	.
=118	=118	=118	=118
2.GG\ 2.G\	2.g/	2.B\ 2.dn\	.
=119	=119	=119	=119
2.D\ 2.Fn\	(4.fn/	2.A\ 2.d\	.
.	8e/	.	.
.	4f/)	.	.
=120	=120	=120	=120
2.BB\ 2.G\	2.g/	2.d\	.
=121	=121	=121	=121
(2.C/ 2.E/	(4.e/	2.G\ 2.c\	p
.	8d#/	.	.
.	4e/)	.	.
=122	=122	=122	=122
2.GG/ 2.D/	2g/	2.B\ 2.dn\	.
.	4g/	.	.
=123	=123	=123	=123
2.DD/ 2.D/	2g/	2.A\ 2.d\	.
.	4f#/	.	.
=124	=124	=124	=124
4GGG/) 4GG/	4g/	4B\ 4d\	.
4r	4r	4r	.
4r	4g/	4r	.
*clefG2	*	*	*
=125	=125	=125	=125
*^	*	*	*
(4.e/	2.c\	(4.ee/	2.g\ 2.cc\	.
8d#/	.	8dd#/	.	.
4e/)	.	4ee/)	.	.
*v	*v	*	*	*
=126	=126	=126	=126
2.G/ 2.g/	2.gg/	2.b\ 2.ddn\	.
=127	=127	=127	=127
*^	*	*	*
(4.fn/	2.d\	(4.ffn/	2.a\ 2.dd\	.
8e/	.	8ee/	.	.
4f/)	.	4ff/)	.	.
*v	*v	*	*	*
=128	=128	=128	=128
2.B/ 2.g/	2.gg/	2.dd\	.
=129	=129	=129	=129
*^	*	*	*
(4.e/	2.c\	(4.ee/	2.g\ 2.cc\	p
8d#/	.	8dd#/	.	.
4e/)	.	4ee/)	.	.
*v	*v	*	*	*
*	*v	*v	*
*clefF4	*	*
=130	=130	=130
2.C\ 2.A#\	(2e'/ 2ee'/	<
.	4e'/) 4ee'/	.
=131	=131	=131
[2.BB\ [2.B\	(2e/ 2ee/	>
.	4d#/) 4dd#/	.
=132	=132	=132
2.BB;\] 2.B;\]	2f#;\ 2ff#;\	.
.	4b\	p
*clefG2	*	*
=133	=133	=133
*	*^	*
*^	*	*	*
(2.e\	4.e/	(4.ee/	2.g\ 2.b\	.
.	8d#/	8dd#/	.	.
.	4e/)	4ee/)	.	.
=134	=134	=134	=134	=134
(4.e/	2.c\	(4.ee/	2.g\ 2.cc\	.
8d#/	.	8dd#/	.	.
4e/)	.	4ee/)	.	.
*v	*v	*	*	*
=135	=135	=135	=135
2.A#/ [2.g/	[2.gg/	2.a#\ 2.cc#\	.
=136	=136	=136	=136
*^	*	*	*
(4g/]	2.An\	(4gg/]	2.an\ 2.ccn\	.
8f#/L	.	8ff#/L	.	.
8e/	.	8ee/	.	.
8d#/	.	8dd#/	.	.
8f#/J)	.	8ff#/J)	.	.
*v	*v	*	*	*
*clefF4	*	*	*
=137	=137	=137	=137
4G\ 4e\	(4ee/	4b\	.
4F#\ 4d#\	4ff#/	4b\	.
4E\ 4e\	4gg/	4b\	.
=138	=138	=138	=138
2D#\ 2B\	4bb/	2ff#\	.
.	4aa/	.	.
4E\ 4B\	4gg/)	4ee\	.
=139	=139	=139	=139
*^	*	*	*
2B/	[2.BB\	(2ff#/	2dd#\	.
4A#/	.	8aan/L	4ee\	.
.	.	8gg/J	.	.
*v	*v	*	*	*
=140	=140	=140	=140
4BB'\] 4B'\	4ff#'/)	4dd#\	.
4r	4r	4r	.
4r	4r	4B/	.
*	*v	*v	*
=141	=141	=141
*^	*	*
(2.E\	4.E/	(4.e/	.
.	8D#/	8d#/	.
.	4E/)	4e/)	.
=142	=142	=142	=142
(4.E/	2.C\	(4.e/	.
8D#/	.	8d#/	.
4E/)	.	4e/)	.
=143	=143	=143	=143
*	*	*^	*
[2.c/	[2.Dn\ [2.Fn\	[2.cc/	[2.dn\ [2.fn\	.
=144	=144	=144	=144	=144
(4c/]	2.Dn\] 2.Fn\]	(4cc/]	2.d\] 2.f\]	.
8B/L	.	8b/L	.	.
8A/	.	8a/	.	.
8G#/	.	8g#/	.	.
8B/J)	.	8b/J)	.	.
*v	*v	*	*	*
=145	=145	=145	=145
4C'\ 4E'\ 4A'\	4c'/ 4e'/ 4a'/	4r	.
2D\ 2Fn\ 2B\	(8b/L	2d\ 2fn\	.
.	8a/	.	.
.	8g#/	.	.
.	8b/J)	.	.
=146	=146	=146	=146
4C'\ 4E'\ 4A'\	4c'/ 4e'/ 4a'/	4r	.
2D\ 2Fn\ 2B\	(8b/L	2d\ 2fn\	.
.	8a/	.	.
.	8g#/	.	.
.	8b/J)	.	.
*	*v	*v	*
=147	=147	=147
4C'\ 4E'\ 4A'\	4c'/ 4e'/ 4a'/	.
4r	(8a/L	<
.	8g#/	.
4r	8a/	.
.	8b/J	.
=148	=148	=148
4r	8cc\L	.
.	8dd\	.
4r	8ee\	.
.	8dd#\	.
4A\ 4e\	8ee\	.
.	8cc\J)	.
=149	=149	=149
4B\ 4e\	4b'/	p
4r	(8b/L	.
.	8a#/	.
4r	8b/	.
.	8gn/J	.
=150	=150	=150
4BBB'/ 4BB'/	4d#'/) 4f#'/	.
4r	(8b/L	.
.	8a#/	.
4r	8b/	.
.	8f#/J)	.
=151	=151	=151
*^	*^	*
4r	[2.EE\	(2.e/	4r	<
4r	.	.	4r	.
4BB/	.	.	4G#\	.
=152	=152	=152	=152	=152
4C/	2.EE\_	2.d#/	4A\	.
8C/L	.	.	8A\L	.
8BB/	.	.	8B\	.
8AA/	.	.	8c\	.
8C/J	.	.	8A\J	.
=153	=153	=153	=153	=153
2E/	4EE\]	4e/)	4G#\	.
.	4r	4r	4r	.
4B/	4r	4g#/	4e\	.
*v	*v	*	*	*
=154	=154	=154	=154
4c/	4a/	2.d#\	.
(8c/L	(8a/L	.	.
8B/	8b/	.	.
8A/	8cc/	.	.
8c/J)	8a/J)	.	.
=155	=155	=155	=155
*^	*	*	*
4B/	[2.E\	4g#/	4e\	.
4r	.	4r	4r	.
4B/	.	4ee/	4g#\	.
=156	=156	=156	=156	=156
4c/	2.E\]	2.dd#/	4a\	.
(8c/L	.	.	(8a\L	.
8B/	.	.	8b\	.
8A/	.	.	8cc\	.
8c/J)	.	.	8a\J)	.
=157	=157	=157	=157	=157
4B/	4E\	4ee/	4g#\	.
(8c/L	2E\	2dd#/	(8a\L	.
8B/	.	.	8b\	.
8A/	.	.	8cc\	.
8c/J)	.	.	8a\J)	.
=158	=158	=158	=158	=158
4B/	4E\	4ee/	4g#\	.
(8c/L	2E\	2dd#/	(8a\L	.
8B/	.	.	8b\	.
8A/	.	.	8cc\	.
8c/J)	.	.	8a\J)	.
=159	=159	=159	=159	=159
4B/	4E\	4ee/	4g#\	p
4r	4r	4r	4r	.
4r	4r	4r	4r	.
*	*	*v	*v	*
=160	=160	=160	=160
4B/	4E\	4ee\ 4gg#\	.
4r	4r	4r	.
4r	4r	4r	.
*v	*v	*	*
=161	=161	=161
4EE/ 4BB/ 4E/	4ee\ 4gg#\ 4eee\	pp
4r	4r	.
4r	4r	.
=162	=162	=162
2.r	[2eee\	<
.	(8.eee\L]	.
.	16e\Jk)	.
=163	=163	=163
*^	*	*
2.G/	[2.CC\ 2.C\	(2.e/	p
*v	*v	*	*
=164	=164	=164
*^	*	*
*	*^	*	*
2.Fn/	2BB/	2.CC\]	4d/	.
.	.	.	4fn/	.
*	*v	*v	*	*
.	4D/	4B/)	.
=165	=165	=165	=165
4E'/	4CC\ 4C\	(4c'/	.
4r	4r	4e'/	.
4r	4r	4g'/)	.
*v	*v	*	*
=166	=166	=166
2.r	(4cc'\	.
.	4dd'\	.
.	4dd#'\)	.
=167	=167	=167
[2.C\ 2.c\	2.g\ (2.ee\	.
=168	=168	=168
*^	*^	*
2B/	2.C\]	4ddn/	2.fn\	.
.	.	4ffn/	.	.
4d/	.	4b/)	.	.
*v	*v	*	*	*
=169	=169	=169	=169
4C\ 4c\	(4cc'/	4e\	.
4r	4ee'/	4r	.
4r	4gg'/)	4r	.
*	*v	*v	*
=170	=170	=170
2.r	(4ccc'\	<
.	4ddd'\	.
.	4ddd#'\)	.
=171	=171	=171
[2.C\ [2.E\ 2.G\	[2.ee\ [2.eee\	p
=172	=172	=172
2.C\] 2.E\] 2.A\	2.ee\] 2.eee\]	.
=173	=173	=173
[2.BB\ 2.E\ 2.G\ [2.B\	[2.b\ [2.bb\	.
=174	=174	=174
2.BB\] 2.D#\ 2.F#\ 2.B\]	2.b\] 2.bb\]	.
=175	=175	=175
4E\	4e\ 4ee\	pp
4r	4r	.
4r	4r	.
=176	=176	=176
4EE/ 4E/	4e/	.
4r	4r	.
4r	4r	.
=177	=177	=177
4EE/ 4E/	4e/	.
4r	4r	.
4r	4r	.
=178	=178	=178
2.r;	2.r;	.
==	==	==
*-	*-	*-
!!!ENC: Craig Stuart Sapp
!!!END: 2005/08/23/
